!!!SOCIAL_FUNCTION: songs connected with ceremonies
!!!SOCIAL_FUNCTION2: Bear dance
!!!PDT:	1929
!!!LING_GROUP: Caddoan
!!!LANG: Non-Tone
!!!REG: Oklahoma
!!!COM: Anon.
!!!OTL: The Bear is Pointing at the Sun
!!!ODT: <1920//
!!!MPN: Tutukrawitsu [He overtook the enemy, Wicita Blain]
!!!MLC: Pawnee, Oklahoma, United States of America
!! Song was recorded either 1919 or 1920.
!!!AGN: monody
!!!AMT: irregular
!!!RWG: Transcribed pitches, durations, and meters are only approximate.
!! Drum Tempo:  MM132 changing to 76
!! Drum-rhythm: (8 8 8 8 8 8)
**kern	**silbe	**words	**words
*ICvox	*LPawnee	*LPawnee	*LEnglish
*Imale	*	*	*
*clefF4	*	*	*
*k[]	*	*	*
*M2/4	*M2/4	*M2/4	*M2/4
*MM76	*MM76	*MM76	*MM76
=1-	=1-	=1-	=1-
8e	Ha	Ha	Listen
16e	ti	ti	he
16e	wa-	waka	said
8e	-ka	.	.
8e	i	.	.
*M3/4	*M3/4	*M3/4	*M3/4
=2	=2	=2	=2
8e	ra	ra	have
8d	ri-	riki	stand
8c	-ki	.	.
8c	e	.	.
8c	e	.	.
8r	.	.	.
=3	=3	=3	=3
8e	ra	ra	have
16e	wa	.	.
16d	i-	itawi	telling
8e	-ta-	.	.
8d	-wi	.	.
4c	e	.	.
=4	=4	=4	=4
8d	ra	ra	have
8c	ri-	riki	stand
8A	-ki	.	.
8A	e	.	.
8A	e	.	.
16.A	e	.	.
32e	ku-	kuruks	bear
*M2/4	*M2/4	*M2/4	*M2/4
=5	=5	=5	=5
(16e	-ruks	.	.
8c)	|	.	.
16c	he-	heru	yonder
(16c	-ru	.	.
8.A)	|	.	.
=6	=6	=6	=6
8A	te	te	it
8A	ri-	riki	stands
8A	-ki	.	.
(16A	e	.	.
16G)	|	.	.
*M3/4	*M3/4	*M3/4	*M3/4
=7	=7	=7	=7
8A	we	we	now
8A	ra	ra	have
8B	sa-	saku	sun
8A	-ku	.	.
8.A	ra	ra	coming
16e	ku-	kuruks	bear
*M2/4	*M2/4	*M2/4	*M2/4
=8	=8	=8	=8
8.e	-ruks	.	.
16e	he-	heru	yonder
8.e	-ru	.	.
16e	te	te	it
*M3/4	*M3/4	*M3/4	*M3/4
=9	=9	=9	=9
8e	a	.	.
8d	ri-	riki	stands
[4c	-ki	.	.
8.c]	|	.	.
16e	ku-	kuruks	bear
*M2/4	*M2/4	*M2/4	*M2/4
=10	=10	=10	=10
(16e	-ruks	.	.
8c)	|	.	.
16c	he-	heru	yonder
(16c	-ru	.	.
8.A)	|	.	.
*M3/4	*M3/4	*M3/4	*M3/4
=11	=11	=11	=11
8c	te	te	it
8c	ri	.	.
8A	te	te	it
8A	ri-	riki	stands
8.A	-ki	.	.
16e	ku-	kuruks	bear
*M2/4	*M2/4	*M2/4	*M2/4
=12	=12	=12	=12
(16e	-ruks	.	.
8c)	|	.	.
16c	he-	heru	yonder
(16c	-ru	.	.
8.A)	|	.	.
=13	=13	=13	=13
8A	te	te	it
8A	ri-	riki	stands
8A	-ki	.	.
(16A	e	.	.
16G)	|	.	.
=14	=14	=14	=14
8A	we	we	now
8A	ra	ra	have
8B	sa-	saku	sun
8A	-ku	.	.
=15	=15	=15	=15
2A	ra	.	coming
==	==	==	==
*-	*-	*-	*-
!!!HAO:    For a long time the Pawnee have called the cedar
!!!HAO: tree "mother," a custom which had its origin in the
!!!HAO: dream of a man who saw a cedar tree and thought it
!!!HAO: was "like a woman."  He said, "This tree is made to
!!!HAO: look the same in winter and summer, and to stand up
!!!HAO: so nicely.  The leaves of other trees fall but this
!!!HAO: tree is always green."  This strange woman-tree made
!!!HAO: a noise like a bear and the song is used in the Bear
!!!HAO: dance.
!!!HTX:    He said, a woman is here standing among the trees,
!!!HTX: Now I am telling it,
!!!HTX: A woman is here standing among the trees,
!!!HTX: Loudly does she stand among the trees,
!!!HTX: From where her spirit dwells she grunts (like a bear).
!!!CNT: Pawnee
!!!TXO: Pawnee
!!!OCY: United States
!!!OCL: Frances Densmore
!!!YOR: Frances Densmore, "Pawnee Music"
!!!YOR: Bulletin 93, page 38, No. 12
!!!PPR: Smithsonian Institution, Bureau of American Ethnology
!!!PPR: Government Printing Office
!!!PDT: 1926
!!!PPP: Washington, DC, United States of America
!!!YEC: Electronic Copyright 2000 David Huron
!!!YER: September 2000
!!!YEN: United States of America
!!!ENC: David Huron
!!!RDT: September 2, 2000
!!!EEV: Release 1.0
!!!AIN: tom, vox
